src/Static/Positions/ks-position-41.svg

<?xml version="1.0" encoding="UTF-8"?>
<svg width="218px" height="251px" viewBox="0 0 218 251" version="1.1" xmlns="http://www.w3.org/2000/svg" xmlns:xlink="http://www.w3.org/1999/xlink">
    <title>sex-etsy-41</title>
    <defs>
        <path d="M25.9398,67.3354 C27.2777,66.7343 28.6957,66.4296 30.1537,66.4296 C34.2055,66.4296 37.8949,68.8173 39.5551,72.5126 L43.7526,81.8622 C43.8449,81.5026 43.9417,81.1307 44.0308,80.7787 C47.4399,71.0003 44.3431,58.9007 35.9372,56.3082 C27.5292,53.7175 14.9193,57.6686 9.0908,72.0138 C1.1928,91.7843 -0.9861,104.8175 0.3809,127.1405 C0.7151,129.5607 1.2459,131.664 1.9309,133.5033 C2.3879,135.3996 3.2889,137.2182 4.6611,138.7889 L37.5185,176.4041 L27.2294,232.0945 C25.9755,238.8826 30.4618,245.4031 37.2509,246.657 C38.0185,246.7986 38.7822,246.867 39.5361,246.867 C45.4463,246.867 50.7011,242.657 51.8134,236.6356 L63.2001,175.0028 C63.8935,171.2489 62.8339,167.3837 60.3222,164.5087 L35.7571,136.3863 C35.8866,135.0125 35.9475,133.4521 35.9398,131.6762 C35.5353,126.5366 35.7865,121.1771 36.4175,115.8198 L20.7619,80.9508 C18.4369,75.7695 20.7591,69.6616 25.9398,67.3354 Z" id="path-1"></path>
        <filter x="-13.4%" y="-3.4%" width="126.8%" height="108.9%" filterUnits="objectBoundingBox" id="filter-2">
            <feMorphology radius="1.5" operator="dilate" in="SourceAlpha" result="shadowSpreadOuter1"></feMorphology>
            <feOffset dx="0" dy="2" in="shadowSpreadOuter1" result="shadowOffsetOuter1"></feOffset>
            <feGaussianBlur stdDeviation="2" in="shadowOffsetOuter1" result="shadowBlurOuter1"></feGaussianBlur>
            <feComposite in="shadowBlurOuter1" in2="SourceAlpha" operator="out" result="shadowBlurOuter1"></feComposite>
            <feColorMatrix values="0 0 0 0 0   0 0 0 0 0   0 0 0 0 0  0 0 0 1 0" type="matrix" in="shadowBlurOuter1"></feColorMatrix>
        </filter>
        <circle id="path-3" cx="44.9790221" cy="30.5020017" r="22.4987158"></circle>
        <filter x="-18.9%" y="-14.4%" width="137.8%" height="137.8%" filterUnits="objectBoundingBox" id="filter-4">
            <feMorphology radius="1.5" operator="dilate" in="SourceAlpha" result="shadowSpreadOuter1"></feMorphology>
            <feOffset dx="0" dy="2" in="shadowSpreadOuter1" result="shadowOffsetOuter1"></feOffset>
            <feGaussianBlur stdDeviation="2" in="shadowOffsetOuter1" result="shadowBlurOuter1"></feGaussianBlur>
            <feComposite in="shadowBlurOuter1" in2="SourceAlpha" operator="out" result="shadowBlurOuter1"></feComposite>
            <feColorMatrix values="0 0 0 0 0   0 0 0 0 0   0 0 0 0 0  0 0 0 1 0" type="matrix" in="shadowBlurOuter1"></feColorMatrix>
        </filter>
        <path d="M78.7757,135.8432 C79.7982,136.2783 80.8597,136.4838 81.9046,136.4838 C85.0159,136.4838 87.9749,134.6576 89.2698,131.6142 C90.9993,127.5488 89.1067,122.8505 85.0413,121.1205 L52.6732,107.3471 L37.4564,73.4551 C35.6468,69.4253 30.9125,67.6236 26.8822,69.4336 C22.8509,71.2437 21.0511,75.978 22.8607,80.0088 L39.3607,116.7588 C40.1849,118.5962 41.6732,120.0547 43.5257,120.8433 L78.7757,135.8432 Z" id="path-5"></path>
        <filter x="-12.5%" y="-9.6%" width="125.1%" height="125.1%" filterUnits="objectBoundingBox" id="filter-6">
            <feMorphology radius="1.5" operator="dilate" in="SourceAlpha" result="shadowSpreadOuter1"></feMorphology>
            <feOffset dx="0" dy="2" in="shadowSpreadOuter1" result="shadowOffsetOuter1"></feOffset>
            <feGaussianBlur stdDeviation="2" in="shadowOffsetOuter1" result="shadowBlurOuter1"></feGaussianBlur>
            <feComposite in="shadowBlurOuter1" in2="SourceAlpha" operator="out" result="shadowBlurOuter1"></feComposite>
            <feColorMatrix values="0 0 0 0 0   0 0 0 0 0   0 0 0 0 0  0 0 0 1 0" type="matrix" in="shadowBlurOuter1"></feColorMatrix>
        </filter>
        <path d="M146.0981,87.7958 C146.9461,86.6734 147.8874,85.6011 148.9583,84.6154 C149.8537,83.7912 150.8084,83.0765 151.7879,82.4156 C145.3846,78.0986 135.8975,75.3728 123.8503,87.492 C112.0266,99.3863 106.1884,97.1511 103.1915,93.7373 C100.1947,90.3235 101.6333,104.3007 116.8988,104.286411 C128.672,104.2752 138.1684,87.284 146.0981,87.7958 Z" id="path-7"></path>
        <filter x="-17.0%" y="-25.5%" width="136.4%" height="166.6%" filterUnits="objectBoundingBox" id="filter-8">
            <feMorphology radius="1.5" operator="dilate" in="SourceAlpha" result="shadowSpreadOuter1"></feMorphology>
            <feOffset dx="0" dy="2" in="shadowSpreadOuter1" result="shadowOffsetOuter1"></feOffset>
            <feGaussianBlur stdDeviation="2" in="shadowOffsetOuter1" result="shadowBlurOuter1"></feGaussianBlur>
            <feComposite in="shadowBlurOuter1" in2="SourceAlpha" operator="out" result="shadowBlurOuter1"></feComposite>
            <feColorMatrix values="0 0 0 0 0   0 0 0 0 0   0 0 0 0 0  0 0 0 0.5 0" type="matrix" in="shadowBlurOuter1"></feColorMatrix>
        </filter>
        <circle id="path-9" cx="165.082345" cy="102.118617" r="21.5010767"></circle>
        <filter x="-19.8%" y="-15.1%" width="139.5%" height="139.5%" filterUnits="objectBoundingBox" id="filter-10">
            <feMorphology radius="1.5" operator="dilate" in="SourceAlpha" result="shadowSpreadOuter1"></feMorphology>
            <feOffset dx="0" dy="2" in="shadowSpreadOuter1" result="shadowOffsetOuter1"></feOffset>
            <feGaussianBlur stdDeviation="2" in="shadowOffsetOuter1" result="shadowBlurOuter1"></feGaussianBlur>
            <feComposite in="shadowBlurOuter1" in2="SourceAlpha" operator="out" result="shadowBlurOuter1"></feComposite>
            <feColorMatrix values="0 0 0 0 0   0 0 0 0 0   0 0 0 0 0  0 0 0 0.5 0" type="matrix" in="shadowBlurOuter1"></feColorMatrix>
        </filter>
        <path d="M124.325,114.3977 C121.3514,116.4084 120.5701,120.4495 122.5809,123.4231 L142.4139,152.7566 C143.6229,154.5447 145.6405,155.616 147.7987,155.616 L187.1327,155.616 C190.7225,155.616 193.6327,152.7058 193.6327,149.116 C193.6327,145.5262 190.7225,142.616 187.1327,142.616 L151.2499,142.616 L133.3505,116.1419 C131.3387,113.1677 127.2977,112.3879 124.325,114.3977 Z" id="path-11"></path>
        <filter x="-11.8%" y="-15.4%" width="123.6%" height="140.2%" filterUnits="objectBoundingBox" id="filter-12">
            <feMorphology radius="1.5" operator="dilate" in="SourceAlpha" result="shadowSpreadOuter1"></feMorphology>
            <feOffset dx="0" dy="2" in="shadowSpreadOuter1" result="shadowOffsetOuter1"></feOffset>
            <feGaussianBlur stdDeviation="2" in="shadowOffsetOuter1" result="shadowBlurOuter1"></feGaussianBlur>
            <feComposite in="shadowBlurOuter1" in2="SourceAlpha" operator="out" result="shadowBlurOuter1"></feComposite>
            <feColorMatrix values="0 0 0 0 0   0 0 0 0 0   0 0 0 0 0  0 0 0 0.5 0" type="matrix" in="shadowBlurOuter1"></feColorMatrix>
        </filter>
        <rect id="path-13" x="123.4657" y="159.866" width="84" height="7.5"></rect>
        <filter x="-10.1%" y="-86.7%" width="120.2%" height="326.7%" filterUnits="objectBoundingBox" id="filter-14">
            <feMorphology radius="1.5" operator="dilate" in="SourceAlpha" result="shadowSpreadOuter1"></feMorphology>
            <feOffset dx="0" dy="2" in="shadowSpreadOuter1" result="shadowOffsetOuter1"></feOffset>
            <feGaussianBlur stdDeviation="2" in="shadowOffsetOuter1" result="shadowBlurOuter1"></feGaussianBlur>
            <feComposite in="shadowBlurOuter1" in2="SourceAlpha" operator="out" result="shadowBlurOuter1"></feComposite>
            <feColorMatrix values="0 0 0 0 0   0 0 0 0 0   0 0 0 0 0  0 0 0 1 0" type="matrix" in="shadowBlurOuter1"></feColorMatrix>
        </filter>
        <path d="M129.3823,147.8451 C130.3487,147.8451 131.1323,147.0616 131.1323,146.0951 C131.1323,145.5563 130.8836,145.0804 130.5006,144.7593 C130.8304,143.6859 131.1214,142.222 131.3756,140.5366 L120.6756,124.7111 C119.3592,122.7643 118.8797,120.4206 119.326,118.113 C119.7713,115.8049 121.0897,113.8088 123.0369,112.4924 C124.4978,111.5041 126.2,110.9821 127.9588,110.9821 C130.8885,110.9821 133.616,112.4294 135.2557,114.8532 L141.0401,123.4088 C141.8159,122.9657 142.6642,122.5301 143.5965,122.1051 C145.2391,112.8481 139.8207,103.673 127.4996,102.9756 C124.24,105.0798 120.7284,106.5824 116.9005,106.5861 C115.9844,106.587 115.1324,106.5289 114.3092,106.4461 C106.9486,110.4905 98.241,116.2839 74.0695,113.9523 L85.9418,119.0044 C91.1674,121.228 93.6098,127.2886 91.3861,132.5147 C89.766,136.3233 86.0443,138.7838 81.9047,138.7838 C80.516,138.7838 79.1606,138.5065 77.8754,137.9596 L54.1883,127.88 C53.9998,132.7081 55.1739,137.9366 56.9141,142.1718 C57.2161,143.3506 57.7172,144.4986 58.4523,145.5567 L59.0574,146.4277 C59.4315,147.0293 59.8141,147.5819 60.2008,148.0736 L86.1573,185.4346 L77.6749,234.543 C76.6876,240.2578 80.5196,245.6895 86.2345,246.6768 C86.839,246.7813 87.4406,246.8321 88.0343,246.8321 C93.0489,246.8321 97.4855,243.2266 98.3683,238.1173 L107.5831,184.7667 C108.0528,182.0479 107.4337,179.254 105.8595,176.9884 L82.6376,143.5626 C90.161,141.2955 99.7305,139.3236 111.6027,138.8261 C111.7455,153.5163 122.9706,151.9467 128.4509,147.572 C128.721,147.7425 129.0389,147.8451 129.3823,147.8451 Z" id="path-15"></path>
        <filter x="-9.5%" y="-4.5%" width="118.9%" height="111.8%" filterUnits="objectBoundingBox" id="filter-16">
            <feMorphology radius="1.5" operator="dilate" in="SourceAlpha" result="shadowSpreadOuter1"></feMorphology>
            <feOffset dx="0" dy="2" in="shadowSpreadOuter1" result="shadowOffsetOuter1"></feOffset>
            <feGaussianBlur stdDeviation="2" in="shadowOffsetOuter1" result="shadowBlurOuter1"></feGaussianBlur>
            <feComposite in="shadowBlurOuter1" in2="SourceAlpha" operator="out" result="shadowBlurOuter1"></feComposite>
            <feColorMatrix values="0 0 0 0 0   0 0 0 0 0   0 0 0 0 0  0 0 0 0.5 0" type="matrix" in="shadowBlurOuter1"></feColorMatrix>
        </filter>
    </defs>
    <g id="Page-2" stroke="none" stroke-width="1" fill="none" fill-rule="evenodd">
        <g id="sex-etsy-41" transform="translate(5.000000, -3.000000)" fill-rule="nonzero">
            <g id="Path">
                <use fill="black" fill-opacity="1" filter="url(#filter-2)" xlink:href="#path-1"></use>
                <use stroke="#1A1A1D" stroke-width="3" fill="#4E4E50" xlink:href="#path-1"></use>
            </g>
            <g id="Oval" transform="translate(44.979022, 30.502002) rotate(-65.182839) translate(-44.979022, -30.502002) ">
                <use fill="black" fill-opacity="1" filter="url(#filter-4)" xlink:href="#path-3"></use>
                <use stroke="#1A1A1D" stroke-width="3" fill="#4E4E50" xlink:href="#path-3"></use>
            </g>
            <g id="Path">
                <use fill="black" fill-opacity="1" filter="url(#filter-6)" xlink:href="#path-5"></use>
                <use stroke="#1A1A1D" stroke-width="3" fill="#4E4E50" xlink:href="#path-5"></use>
            </g>
            <g id="Path">
                <use fill="black" fill-opacity="1" filter="url(#filter-8)" xlink:href="#path-7"></use>
                <use stroke="#1A1A1D" stroke-width="3" fill="#6F2232" xlink:href="#path-7"></use>
            </g>
            <g id="Oval" transform="translate(165.082345, 102.118617) rotate(-88.280955) translate(-165.082345, -102.118617) ">
                <use fill="black" fill-opacity="1" filter="url(#filter-10)" xlink:href="#path-9"></use>
                <use stroke="#1A1A1D" stroke-width="3" fill="#6F2232" xlink:href="#path-9"></use>
            </g>
            <g id="Path">
                <use fill="black" fill-opacity="1" filter="url(#filter-12)" xlink:href="#path-11"></use>
                <use stroke="#1A1A1D" stroke-width="3" fill="#6F2232" xlink:href="#path-11"></use>
            </g>
            <g id="Rectangle">
                <use fill="black" fill-opacity="1" filter="url(#filter-14)" xlink:href="#path-13"></use>
                <use stroke="#1A1A1D" stroke-width="3" fill="#4E4E50" xlink:href="#path-13"></use>
            </g>
            <g id="Path">
                <use fill="black" fill-opacity="1" filter="url(#filter-16)" xlink:href="#path-15"></use>
                <use stroke="#1A1A1D" stroke-width="3" fill="#6F2232" xlink:href="#path-15"></use>
            </g>
        </g>
    </g>
</svg>

<svg xmlns="http://www.w3.org/2000/svg" width="218" height="251" xmlns:xlink="http://www.w3.org/1999/xlink"><title>sex-etsy-41</title><defs><path id="b" d="M25.94 67.34c1.34-.6 2.76-.9 4.2-.9 4.07 0 7.75 2.38 9.42 6.07l4.2 9.36c.08-.36.18-.73.27-1.08 3.4-9.78.3-21.88-8.1-24.47-8.4-2.58-21 1.37-26.84 15.7C1.2 91.8-1 104.83.37 127.15c.34 2.42.87 4.52 1.55 6.36.46 1.9 1.36 3.72 2.73 5.3l32.86 37.6-10.3 55.7c-1.24 6.78 3.24 13.3 10.03 14.56.77.14 1.53.2 2.3.2 5.9 0 11.15-4.2 12.26-10.22L63.2 175c.7-3.75-.37-7.62-2.88-10.5l-24.56-28.1c.13-1.4.2-2.95.18-4.72-.4-5.14-.15-10.5.48-15.86L20.76 80.95c-2.32-5.18 0-11.3 5.18-13.6z"/><filter id="a" width="126.8%" height="108.9%" x="-13.4%" y="-3.4%" filterUnits="objectBoundingBox"><feMorphology radius="1.5" operator="dilate" in="SourceAlpha" result="shadowSpreadOuter1"/><feOffset dy="2" in="shadowSpreadOuter1" result="shadowOffsetOuter1"/><feGaussianBlur stdDeviation="2" in="shadowOffsetOuter1" result="shadowBlurOuter1"/><feComposite in="shadowBlurOuter1" in2="SourceAlpha" operator="out" result="shadowBlurOuter1"/><feColorMatrix values="0 0 0 0 0 0 0 0 0 0 0 0 0 0 0 0 0 0 1 0" in="shadowBlurOuter1"/></filter><circle id="d" cx="44.979" cy="30.502" r="22.499"/><filter id="c" width="137.8%" height="137.8%" x="-18.9%" y="-14.4%" filterUnits="objectBoundingBox"><feMorphology radius="1.5" operator="dilate" in="SourceAlpha" result="shadowSpreadOuter1"/><feOffset dy="2" in="shadowSpreadOuter1" result="shadowOffsetOuter1"/><feGaussianBlur stdDeviation="2" in="shadowOffsetOuter1" result="shadowBlurOuter1"/><feComposite in="shadowBlurOuter1" in2="SourceAlpha" operator="out" result="shadowBlurOuter1"/><feColorMatrix values="0 0 0 0 0 0 0 0 0 0 0 0 0 0 0 0 0 0 1 0" in="shadowBlurOuter1"/></filter><path id="f" d="M78.78 135.84c1.02.44 2.08.64 3.12.64 3.12 0 6.07-1.82 7.37-4.87 1.73-4.05-.16-8.75-4.23-10.48l-32.37-13.77-15.2-33.9c-1.82-4.02-6.56-5.83-10.6-4.02-4.02 1.8-5.82 6.55-4 10.58l16.5 36.76c.8 1.84 2.3 3.3 4.16 4.08l35.25 15z"/><filter id="e" width="125.1%" height="125.1%" x="-12.5%" y="-9.6%" filterUnits="objectBoundingBox"><feMorphology radius="1.5" operator="dilate" in="SourceAlpha" result="shadowSpreadOuter1"/><feOffset dy="2" in="shadowSpreadOuter1" result="shadowOffsetOuter1"/><feGaussianBlur stdDeviation="2" in="shadowOffsetOuter1" result="shadowBlurOuter1"/><feComposite in="shadowBlurOuter1" in2="SourceAlpha" operator="out" result="shadowBlurOuter1"/><feColorMatrix values="0 0 0 0 0 0 0 0 0 0 0 0 0 0 0 0 0 0 1 0" in="shadowBlurOuter1"/></filter><path id="h" d="M146.1 87.8c.85-1.13 1.8-2.2 2.86-3.18.9-.83 1.85-1.54 2.83-2.2-6.42-4.32-15.9-7.05-27.95 5.07-11.82 11.9-17.66 9.65-20.66 6.24-3-3.42-1.57 10.56 13.7 10.55 11.77-.02 21.27-17.02 29.2-16.5z"/><filter id="g" width="136.4%" height="166.6%" x="-17%" y="-25.5%" filterUnits="objectBoundingBox"><feMorphology radius="1.5" operator="dilate" in="SourceAlpha" result="shadowSpreadOuter1"/><feOffset dy="2" in="shadowSpreadOuter1" result="shadowOffsetOuter1"/><feGaussianBlur stdDeviation="2" in="shadowOffsetOuter1" result="shadowBlurOuter1"/><feComposite in="shadowBlurOuter1" in2="SourceAlpha" operator="out" result="shadowBlurOuter1"/><feColorMatrix values="0 0 0 0 0 0 0 0 0 0 0 0 0 0 0 0 0 0 0.5 0" in="shadowBlurOuter1"/></filter><circle id="j" cx="165.082" cy="102.119" r="21.501"/><filter id="i" width="139.5%" height="139.5%" x="-19.8%" y="-15.1%" filterUnits="objectBoundingBox"><feMorphology radius="1.5" operator="dilate" in="SourceAlpha" result="shadowSpreadOuter1"/><feOffset dy="2" in="shadowSpreadOuter1" result="shadowOffsetOuter1"/><feGaussianBlur stdDeviation="2" in="shadowOffsetOuter1" result="shadowBlurOuter1"/><feComposite in="shadowBlurOuter1" in2="SourceAlpha" operator="out" result="shadowBlurOuter1"/><feColorMatrix values="0 0 0 0 0 0 0 0 0 0 0 0 0 0 0 0 0 0 0.5 0" in="shadowBlurOuter1"/></filter><path id="l" d="M124.33 114.4c-2.98 2-3.76 6.05-1.75 9.02l19.83 29.34c1.22 1.78 3.24 2.86 5.4 2.86h39.33c3.6 0 6.5-2.9 6.5-6.5s-2.9-6.5-6.5-6.5h-35.88l-17.9-26.48c-2-2.97-6.05-3.75-9.02-1.74z"/><filter id="k" width="123.6%" height="140.2%" x="-11.8%" y="-15.4%" filterUnits="objectBoundingBox"><feMorphology radius="1.5" operator="dilate" in="SourceAlpha" result="shadowSpreadOuter1"/><feOffset dy="2" in="shadowSpreadOuter1" result="shadowOffsetOuter1"/><feGaussianBlur stdDeviation="2" in="shadowOffsetOuter1" result="shadowBlurOuter1"/><feComposite in="shadowBlurOuter1" in2="SourceAlpha" operator="out" result="shadowBlurOuter1"/><feColorMatrix values="0 0 0 0 0 0 0 0 0 0 0 0 0 0 0 0 0 0 0.5 0" in="shadowBlurOuter1"/></filter><path id="n" d="M123.47 159.87h84v7.5h-84z"/><filter id="m" width="120.2%" height="326.7%" x="-10.1%" y="-86.7%" filterUnits="objectBoundingBox"><feMorphology radius="1.5" operator="dilate" in="SourceAlpha" result="shadowSpreadOuter1"/><feOffset dy="2" in="shadowSpreadOuter1" result="shadowOffsetOuter1"/><feGaussianBlur stdDeviation="2" in="shadowOffsetOuter1" result="shadowBlurOuter1"/><feComposite in="shadowBlurOuter1" in2="SourceAlpha" operator="out" result="shadowBlurOuter1"/><feColorMatrix values="0 0 0 0 0 0 0 0 0 0 0 0 0 0 0 0 0 0 1 0" in="shadowBlurOuter1"/></filter><path id="p" d="M129.38 147.85c.97 0 1.75-.8 1.75-1.75 0-.54-.25-1.02-.63-1.34.33-1.07.62-2.54.88-4.22l-10.7-15.83c-1.32-1.94-1.8-4.28-1.35-6.6.44-2.3 1.76-4.3 3.7-5.6 1.47-1 3.17-1.52 4.93-1.52 2.93 0 5.66 1.45 7.3 3.87l5.78 8.56c.78-.43 1.62-.87 2.56-1.3 1.64-9.25-3.78-18.43-16.1-19.12-3.26 2.1-6.77 3.6-10.6 3.6-.92 0-1.77-.05-2.6-.13-7.35 4.04-16.06 9.83-40.23 7.5L85.94 119c5.23 2.23 7.67 8.3 5.45 13.5-1.63 3.82-5.36 6.28-9.5 6.28-1.38 0-2.74-.27-4.02-.82l-23.7-10.08c-.18 4.83 1 10.06 2.73 14.3.32 1.17.82 2.32 1.55 3.38l.6.87c.38.6.76 1.15 1.15 1.64l25.96 37.36-8.5 49.1c-.97 5.73 2.86 11.16 8.57 12.15.6.1 1.2.15 1.8.15 5.02 0 9.46-3.6 10.34-8.7l9.2-53.36c.48-2.72-.14-5.52-1.7-7.78l-23.23-33.44c7.52-2.26 17.1-4.24 28.96-4.73.15 14.7 11.37 13.12 16.85 8.74.27.17.6.28.93.28z"/><filter id="o" width="118.9%" height="111.8%" x="-9.5%" y="-4.5%" filterUnits="objectBoundingBox"><feMorphology radius="1.5" operator="dilate" in="SourceAlpha" result="shadowSpreadOuter1"/><feOffset dy="2" in="shadowSpreadOuter1" result="shadowOffsetOuter1"/><feGaussianBlur stdDeviation="2" in="shadowOffsetOuter1" result="shadowBlurOuter1"/><feComposite in="shadowBlurOuter1" in2="SourceAlpha" operator="out" result="shadowBlurOuter1"/><feColorMatrix values="0 0 0 0 0 0 0 0 0 0 0 0 0 0 0 0 0 0 0.5 0" in="shadowBlurOuter1"/></filter></defs><g fill="none"><g fill-rule="nonzero"><g id="Path" transform="translate(5 -3)"><use fill="#000" filter="url(#a)" xlink:href="#b"/><use fill="#4E4E50" stroke="#1A1A1D" stroke-width="3" xlink:href="#b"/></g><g id="Oval" transform="translate(5 -3) rotate(-65.183 44.979 30.502)"><use fill="#000" filter="url(#c)" xlink:href="#d"/><use fill="#4E4E50" stroke="#1A1A1D" stroke-width="3" xlink:href="#d"/></g><g id="Path" transform="translate(5 -3)"><use fill="#000" filter="url(#e)" xlink:href="#f"/><use fill="#4E4E50" stroke="#1A1A1D" stroke-width="3" xlink:href="#f"/></g><g id="Path" transform="translate(5 -3)"><use fill="#000" filter="url(#g)" xlink:href="#h"/><use fill="#6F2232" stroke="#1A1A1D" stroke-width="3" xlink:href="#h"/></g><g transform="translate(5 -3) rotate(-88.281 165.082 102.119)"><use fill="#000" filter="url(#i)" xlink:href="#j"/><use fill="#6F2232" stroke="#1A1A1D" stroke-width="3" xlink:href="#j"/></g><g id="Path" transform="translate(5 -3)"><use fill="#000" filter="url(#k)" xlink:href="#l"/><use fill="#6F2232" stroke="#1A1A1D" stroke-width="3" xlink:href="#l"/></g><g transform="translate(5 -3)"><use fill="#000" filter="url(#m)" xlink:href="#n"/><use fill="#4E4E50" stroke="#1A1A1D" stroke-width="3" xlink:href="#n"/></g><g transform="translate(5 -3)"><use fill="#000" filter="url(#o)" xlink:href="#p"/><use fill="#6F2232" stroke="#1A1A1D" stroke-width="3" xlink:href="#p"/></g></g></g></svg>
